icons/svg/seamark/harbour_fishing.svg

<?xml version="1.0" encoding="UTF-8" standalone="no"?>
<svg
   xmlns:dc="http://purl.org/dc/elements/1.1/"
   xmlns:cc="http://creativecommons.org/ns#"
   xmlns:rdf="http://www.w3.org/1999/02/22-rdf-syntax-ns#"
   xmlns:svg="http://www.w3.org/2000/svg"
   xmlns="http://www.w3.org/2000/svg"
   xmlns:sodipodi="http://sodipodi.sourceforge.net/DTD/sodipodi-0.dtd"
   xmlns:inkscape="http://www.inkscape.org/namespaces/inkscape"
   width="580"
   height="580"
   id="svg2"
   version="1.1"
   inkscape:version="0.48.4 r9939"
   sodipodi:docname="harbour_fishing.svg">
  <defs
     id="defs13">
    <inkscape:path-effect
       effect="gears"
       id="path-effect3774"
       is_visible="true"
       teeth="6"
       phi="-1.2" />
    <inkscape:path-effect
       effect="bend_path"
       id="path-effect3772"
       is_visible="false"
       bendpath="m 95.790098,316.51174 c 144.429032,-206.42506 223.313032,-11.7428 339.548092,0"
       prop_scale="1.19"
       scale_y_rel="false"
       vertical="false"
       bendpath-nodetypes="cc" />
  </defs>
  <sodipodi:namedview
     pagecolor="#ffffff"
     bordercolor="#666666"
     borderopacity="1"
     objecttolerance="10"
     gridtolerance="10"
     guidetolerance="10"
     inkscape:pageopacity="0"
     inkscape:pageshadow="2"
     inkscape:window-width="1920"
     inkscape:window-height="1004"
     id="namedview11"
     showgrid="false"
     inkscape:zoom="0.5754386"
     inkscape:cx="444.71478"
     inkscape:cy="370.829"
     inkscape:window-x="1680"
     inkscape:window-y="0"
     inkscape:window-maximized="1"
     inkscape:current-layer="svg2" />
  <metadata
     id="metadata2975">image/svg+xmlen<rdf:RDF>
  <cc:Work
     rdf:about="">
    <dc:format>image/svg+xml</dc:format>
    <dc:type
       rdf:resource="http://purl.org/dc/dcmitype/StillImage" />
    <dc:title />
  </cc:Work>
</rdf:RDF>
</metadata>
  <path
     style="fill:#930093;color:#000000;fill-opacity:1;fill-rule:nonzero;stroke:none;stroke-width:1;marker:none;visibility:visible;display:inline;overflow:visible;enable-background:accumulate"
     inkscape:connector-curvature="0"
     d="m 90.729482,287.99483 c 0,27.89497 -16.804412,64.53818 -27.859484,79.78104 -3.957109,5.46544 -1.526057,9.9194 4.187797,9.9194 70.127825,0 85.690085,-65.4964 85.690085,-65.4964 0,0 78.20175,80.10045 174.663,80.10045 99.69082,0 153.29815,-32.22473 183.96132,-77.56294 6.81404,-10.0791 11.90682,-18.33047 2.73271,-34.79774 -14.12493,-25.41069 -57.70639,-101.23462 -186.69403,-101.23462 -87.55331,0 -174.663,85.40619 -174.663,85.40619 0,0 -31.19552,-61.36186 -85.317438,-61.36186 -2.289094,0 -8.517553,1.61479 -2.661741,11.44545 9.014412,15.11866 25.960781,45.76409 25.960781,73.80103 z m 300.350088,-6.86727 c 0,-17.7449 14.37336,-32.1715 32.17149,-32.1715 17.79812,0 32.17149,14.4266 32.17149,32.1715 0,17.74489 -14.37337,32.15375 -32.17149,32.15375 -17.79813,0 -32.17149,-14.39112 -32.17149,-32.15375 z"
     id="path3" />
  <path
     style="fill:#930093;color:#000000;fill-opacity:1;fill-rule:nonzero;stroke:none;stroke-width:1;marker:none;visibility:visible;display:inline;overflow:visible;enable-background:accumulate"
     inkscape:connector-curvature="0"
     d="m 397.00635,189.0138 c -10.06135,-34.70901 -45.14301,-58.71785 -59.44539,-58.71785 -28.12566,0 -100.08121,0 -118.87305,0 -18.79183,0 47.02397,42.16187 11.28575,78.27272 -27.07871,27.36263 177.11179,15.15414 167.03269,-19.55487 z"
     id="path5" />
  <circle
     transform="matrix(17.744894,0,0,17.744894,59.462982,59.316369)"
     style="fill:#930093;color:#000000;fill-opacity:1;fill-rule:nonzero;stroke:none;stroke-width:0.05635424;marker:none;visibility:visible;display:inline;overflow:visible;enable-background:accumulate"
     sodipodi:ry="0.75800002"
     sodipodi:rx="0.75800002"
     sodipodi:cy="12.5"
     sodipodi:cx="20.5"
     cx="20.5"
     cy="12.5"
     r="0.75800002"
     id="circle7" />
  <path
     style="fill:#930093;color:#000000;fill-opacity:1;fill-rule:nonzero;stroke:none;stroke-width:1;marker:none;visibility:visible;display:inline;overflow:visible;enable-background:accumulate"
     inkscape:connector-curvature="0"
     d="m 378.32098,388.11152 c -4.91534,26.74156 -49.59697,61.59253 -56.57072,61.59253 -13.68132,0 -19.39517,0 -28.55153,0 -16.3608,0 24.11531,-39.67758 1.668,-69.08087 -15.08315,-19.71459 88.33409,-19.23547 83.45425,7.48834 z"
     id="path9" />
</svg>

<svg width="580" height="580" viewBox="0 0 580 580" fill="none" xmlns="http://www.w3.org/2000/svg">
<path d="M90.7292 287.995C90.7292 315.89 73.9248 352.533 62.8698 367.776C58.9126 373.241 61.3437 377.695 67.0576 377.695C137.185 377.695 152.748 312.199 152.748 312.199C152.748 312.199 230.949 392.299 327.411 392.299C427.101 392.299 480.709 360.075 511.372 314.736C518.186 304.657 523.279 296.406 514.105 279.939C499.98 254.528 456.398 178.704 327.411 178.704C239.857 178.704 152.748 264.11 152.748 264.11C152.748 264.11 121.552 202.748 67.4302 202.748C65.1411 202.748 58.9126 204.363 64.7685 214.194C73.7829 229.313 90.7292 259.958 90.7292 287.995V287.995ZM391.079 281.128C391.079 263.383 405.453 248.956 423.251 248.956C441.049 248.956 455.422 263.383 455.422 281.128C455.422 298.873 441.049 313.281 423.251 313.281C405.453 313.281 391.079 298.89 391.079 281.128Z" fill="#930093"/>
<path d="M397.006 189.014C386.945 154.305 351.863 130.296 337.561 130.296C309.435 130.296 237.48 130.296 218.688 130.296C199.896 130.296 265.712 172.458 229.974 208.569C202.895 235.931 407.086 223.723 397.006 189.014Z" fill="#930093"/>
<path d="M423.233 294.578C430.662 294.578 436.684 288.556 436.684 281.127C436.684 273.699 430.662 267.677 423.233 267.677C415.805 267.677 409.783 273.699 409.783 281.127C409.783 288.556 415.805 294.578 423.233 294.578Z" fill="#930093"/>
<path d="M378.321 388.111C373.406 414.853 328.724 449.704 321.75 449.704C308.069 449.704 302.355 449.704 293.199 449.704C276.838 449.704 317.314 410.026 294.867 380.623C279.784 360.908 383.201 361.388 378.321 388.111Z" fill="#930093"/>
</svg>
